core/assets/icons/character.panda.outline.svg

<svg width="24" height="24" viewBox="0 0 24 24" xmlns="http://www.w3.org/2000/svg"><g id="character=panda, state=outline"><g id="Vector"><path d="M7.5 13.5H4.5V13C4.5 12.1714 5.17139 11.5 6 11.5C6.82861 11.5 7.5 12.1714 7.5 13V13.5Z"/><path d="M19.5 13.5H16.5V13C16.5 12.1714 17.1714 11.5 18 11.5C18.8286 11.5 19.5 12.1714 19.5 13V13.5Z"/><path d="M10.5 17C10.5 17.8286 11.1714 18.5 12 18.5C12.8286 18.5 13.5 17.8286 13.5 17V16.5H10.5V17Z"/><path d="M22.9633 10.7239H22.9547C22.6841 9.93494 22.3145 9.17548 21.8519 8.46167C22.8381 7.7702 23.4993 6.64056 23.5 5.3501C23.5009 4.27454 23.0365 3.29718 22.31 2.60968C21.5841 1.91949 20.5869 1.49994 19.5 1.5C17.8253 1.50085 16.3673 2.49432 15.7766 3.94922C14.6184 3.5968 13.3557 3.39862 12 3.3999C10.6422 3.39862 9.37788 3.59759 8.21827 3.95099C7.62678 2.49597 6.17438 1.50104 4.5 1.5C3.41315 1.49994 2.41596 1.91949 1.69001 2.60968C0.963507 3.29718 0.499144 4.27454 0.500004 5.3501C0.500794 6.64063 1.1631 7.76758 2.14955 8.45941C1.08436 10.1022 0.500864 11.9906 0.500004 13.8999C0.498604 15.2524 0.839663 16.5038 1.45569 17.5853C2.38068 19.2117 3.89479 20.442 5.72029 21.2601C7.54921 22.0792 9.70276 22.4992 12 22.4999C15.0617 22.4973 17.8734 21.7563 19.9911 20.3052C21.0478 19.5792 21.9291 18.6683 22.5443 17.5853C23.1603 16.5038 23.5014 15.2524 23.5 13.8999C23.4995 12.822 23.3071 11.752 22.9558 10.7267L22.9633 10.7239ZM21.4767 13.4517C21.4712 13.725 21.4202 13.9334 21.3377 14.1005C21.2061 14.3586 20.9969 14.5687 20.5956 14.7519C20.1977 14.931 19.6127 15.0508 18.8701 15.0498C17.9273 15.0517 17.1264 14.9078 16.5757 14.6607C16.0194 14.4054 15.7316 14.1108 15.5692 13.6917C15.3887 13.2046 15.3266 12.816 15.3252 12.4119C15.3245 11.9452 15.419 11.4391 15.5824 10.7985C15.6576 10.4836 15.9164 10.0016 16.2643 9.61914C16.6082 9.22906 17.0382 8.94366 17.3501 8.86395C17.6399 8.78418 17.9013 8.75061 18.1409 8.75049C18.815 8.75501 19.3537 9.0033 19.8649 9.47223C20.3445 9.91687 20.7543 10.5757 21.0416 11.3105C21.2876 12.0087 21.4337 12.7287 21.4767 13.4517ZM19.5 3.5C20.0699 3.50006 20.5727 3.71838 20.9326 4.05969C21.2919 4.40369 21.4992 4.85144 21.5 5.3501C21.5008 5.97998 21.1483 6.53809 20.5957 6.88001C20.5249 6.80628 20.4616 6.72736 20.3884 6.6554C19.6037 5.88233 18.675 5.21888 17.6299 4.6919C17.9087 4.01678 18.6259 3.49915 19.5 3.5ZM3.05688 14.5588C2.86608 14.4205 2.74451 14.2754 2.65644 14.1005C2.57825 13.9421 2.53132 13.7425 2.52131 13.4903C2.56336 12.7173 2.72443 11.9473 2.99817 11.2035C3.28302 10.5128 3.67335 9.89485 4.12928 9.47218C4.64039 9.00331 5.17901 8.75502 5.85315 8.7505C6.09271 8.75062 6.35408 8.78419 6.64405 8.86396C6.95588 8.94367 7.38592 9.22907 7.72979 9.61915C8.07775 10.0016 8.33648 10.4836 8.41167 10.7987C8.57506 11.4391 8.66948 11.9452 8.66881 12.4119C8.66747 12.8159 8.60522 13.2047 8.42492 13.6918C8.26238 14.1109 7.97447 14.4055 7.41814 14.6608C6.8676 14.9078 6.06682 15.0517 5.12401 15.0498C4.13049 15.0527 3.4314 14.8342 3.05688 14.5588ZM2.5 5.3501C2.50085 4.85144 2.70813 4.40369 3.06744 4.05969C3.42731 3.71838 3.93011 3.50006 4.5 3.5C5.37402 3.49896 6.08912 4.01813 6.36744 4.69312C5.32343 5.21991 4.3957 5.883 3.61158 6.6554C3.53883 6.72693 3.47589 6.80542 3.40552 6.87867C2.85272 6.53699 2.49915 5.97986 2.5 5.3501ZM17.4614 19.4352C15.9387 20.1191 14.0519 20.5007 12 20.5C9.26288 20.5026 6.82458 19.8186 5.14197 18.6571C4.38635 18.1373 3.79022 17.5232 3.35065 16.8358C3.89649 16.9777 4.48671 17.0491 5.12404 17.0497C6.2574 17.0478 7.31184 16.8931 8.22932 16.4888C9.141 16.0928 9.93392 15.3832 10.2985 14.3915C10.5563 13.7048 10.6702 13.0438 10.6688 12.4119C10.6682 11.6772 10.5259 11.0006 10.35 10.306C10.1591 9.57452 9.75453 8.888 9.21956 8.28473C8.6805 7.68909 8.00801 7.17151 7.17537 6.93585C6.99806 6.88696 6.82301 6.85559 6.64827 6.82611C8.09358 5.94861 9.88068 5.40222 12 5.3999C14.1186 5.40222 15.9052 5.94824 17.3502 6.82519C17.174 6.85473 16.9975 6.88653 16.8187 6.93585C15.9862 7.17151 15.3137 7.68908 14.7746 8.28473C14.2396 8.888 13.835 9.57452 13.6441 10.3058C13.4683 11.0005 13.3259 11.6771 13.3253 12.4119C13.3239 13.0437 13.4377 13.7049 13.6955 14.3913C14.0599 15.3832 14.8529 16.0928 15.7647 16.4889C16.6822 16.8931 17.7368 17.0479 18.8701 17.0497C19.4989 17.0483 20.0893 16.9858 20.6308 16.8472C19.946 17.9105 18.8746 18.8011 17.4614 19.4352Z"/></g></g></svg>

<svg xmlns="http://www.w3.org/2000/svg" width="24" height="24" fill="none"><g fill="#191C22"><path d="M7.5 13.5h-3V13a1.5 1.5 0 1 1 3 0v.5ZM19.5 13.5h-3V13a1.5 1.5 0 1 1 3 0v.5ZM10.5 17a1.5 1.5 0 1 0 3 0v-.5h-3v.5Z"/><path d="M22.963 10.724h-.008c-.27-.79-.64-1.549-1.103-2.262.986-.692 1.647-1.821 1.648-3.112a3.774 3.774 0 0 0-1.19-2.74A4.072 4.072 0 0 0 19.5 1.5c-1.675 0-3.133.994-3.723 2.45A12.89 12.89 0 0 0 12 3.4a12.888 12.888 0 0 0-3.782.551C7.627 2.496 6.174 1.501 4.5 1.5c-1.087 0-2.084.42-2.81 1.11A3.774 3.774 0 0 0 .5 5.35c0 1.29.663 2.418 1.65 3.11C1.084 10.101.5 11.99.5 13.9a7.38 7.38 0 0 0 .956 3.685c.925 1.627 2.439 2.857 4.264 3.675 1.83.82 3.983 1.24 6.28 1.24 3.062-.003 5.873-.744 7.991-2.195 1.057-.726 1.938-1.637 2.553-2.72A7.38 7.38 0 0 0 23.5 13.9a9.809 9.809 0 0 0-.544-3.173l.007-.003Zm-1.486 2.728a1.508 1.508 0 0 1-.14.649c-.13.258-.34.468-.741.65-.398.18-.983.3-1.726.299-.943.002-1.744-.142-2.294-.39-.557-.255-.844-.55-1.007-.968a3.543 3.543 0 0 1-.244-1.28c0-.467.094-.973.257-1.614.076-.314.334-.796.682-1.179.344-.39.774-.675 1.086-.755.29-.08.551-.113.79-.114.675.005 1.214.253 1.725.722.48.445.89 1.104 1.177 1.838.246.699.392 1.419.435 2.142ZM19.5 3.5c.57 0 1.073.218 1.433.56.359.344.566.791.567 1.29 0 .63-.352 1.188-.904 1.53-.071-.074-.134-.153-.208-.225a10.936 10.936 0 0 0-2.758-1.963c.279-.675.996-1.193 1.87-1.192ZM3.057 14.559a1.233 1.233 0 0 1-.4-.458 1.503 1.503 0 0 1-.136-.61 7.858 7.858 0 0 1 .477-2.287c.285-.691.675-1.31 1.131-1.732.511-.469 1.05-.717 1.724-.721.24 0 .501.033.791.113.312.08.742.365 1.086.755.348.383.606.865.682 1.18.163.64.257 1.146.257 1.613a3.546 3.546 0 0 1-.244 1.28c-.163.419-.45.713-1.007.969-.55.247-1.351.39-2.294.389-.994.003-1.693-.216-2.067-.491ZM2.5 5.35c0-.499.208-.946.567-1.29.36-.342.863-.56 1.433-.56.874-.001 1.59.518 1.867 1.193a10.938 10.938 0 0 0-2.755 1.962c-.073.072-.136.15-.206.224-.553-.342-.907-.9-.906-1.529Zm14.961 14.085c-1.522.684-3.41 1.066-5.461 1.065-2.737.003-5.175-.681-6.858-1.843a6.403 6.403 0 0 1-1.791-1.821 7.054 7.054 0 0 0 1.773.214c1.133-.002 2.188-.157 3.105-.561.912-.396 1.705-1.106 2.07-2.098a5.563 5.563 0 0 0 .37-1.98c0-.734-.143-1.41-.319-2.105-.19-.731-.595-1.418-1.13-2.021-.54-.596-1.212-1.113-2.045-1.35a5.232 5.232 0 0 0-.527-.109C8.094 5.95 9.881 5.402 12 5.4c2.119.002 3.905.548 5.35 1.425a5.22 5.22 0 0 0-.531.11c-.833.237-1.505.754-2.044 1.35-.535.603-.94 1.29-1.13 2.02-.177.696-.32 1.372-.32 2.107a5.561 5.561 0 0 0 .37 1.98c.365.991 1.158 1.7 2.07 2.097.917.404 1.972.559 3.105.56a7.179 7.179 0 0 0 1.76-.202c-.684 1.063-1.755 1.954-3.169 2.588Z"/></g></svg>
